src/pos-icons/format-color-text.svg

<svg height="24" viewBox="0 0 24 24" width="24" xmlns="http://www.w3.org/2000/svg"><path d="m9.62 12 2.38-6.33 2.37 6.33m-3.37-9-5.5 14h2.25l1.12-3h6.25l1.13 3h2.25l-5.5-14z"/></svg>

<?xml version="1.0" encoding="UTF-8"?><!DOCTYPE svg PUBLIC "-//W3C//DTD SVG 1.1//EN" "http://www.w3.org/Graphics/SVG/1.1/DTD/svg11.dtd"><svg xmlns="http://www.w3.org/2000/svg" xmlns:xlink="http://www.w3.org/1999/xlink" version="1.1" id="mdi-format-color-text" width="24" height="24" viewBox="0 0 24 24"><path d="M9.62,12L12,5.67L14.37,12M11,3L5.5,17H7.75L8.87,14H15.12L16.25,17H18.5L13,3H11Z" /></svg>
